small/extra/apps/standard/google-drive.svg

<?xml version="1.0" encoding="UTF-8" standalone="no"?>
<svg id="svg2" xmlns:rdf="http://www.w3.org/1999/02/22-rdf-syntax-ns#" xmlns="http://www.w3.org/2000/svg" height="100%" viewBox="0 0 512 512" width="100%" version="1.1" xmlns:cc="http://creativecommons.org/ns#" xmlns:xlink="http://www.w3.org/1999/xlink" xmlns:dc="http://purl.org/dc/elements/1.1/">
 <metadata id="metadata10">
  <rdf:RDF>
   <cc:Work rdf:about="">
    <dc:format>image/svg+xml</dc:format>
    <dc:type rdf:resource="http://purl.org/dc/dcmitype/StillImage"/>
    <dc:title/>
   </cc:Work>
  </rdf:RDF>
 </metadata>
 <defs id="defs8">
  <linearGradient id="linearGradient4216-1">
   <stop id="stop4218-0" stop-color="#fff" offset="0"/>
   <stop id="stop4220-2" stop-color="#e8e8e8" offset=".6875"/>
   <stop id="stop4222-6" stop-color="#686868" offset=".875"/>
   <stop id="stop4224-6" offset="1"/>
  </linearGradient>
  <radialGradient id="radialGradient21305" xlink:href="#linearGradient4216-1" gradientUnits="userSpaceOnUse" cy="64" cx="64" gradientTransform="matrix(4.1658 0 0 3.8875 -39.924 -73.947)" r="64"/>
  <radialGradient id="radialGradient21305-0" gradientUnits="userSpaceOnUse" xlink:href="#linearGradient4216-1" cx="64" cy="64" r="64" gradientTransform="matrix(4.1658 0 0 3.8875 1383.5 -189.35)"/>
  <linearGradient id="ButtonShadow" x1="45.448" gradientUnits="userSpaceOnUse" y1="92.54" gradientTransform="scale(1.0059 .99417)" x2="45.448" y2="7.0165">
   <stop id="stop3750-1" offset="0"/>
   <stop id="stop3752-6" stop-opacity=".58824" offset="1"/>
  </linearGradient>
  <filter id="filter3174" color-interpolation-filters="sRGB">
   <feGaussianBlur id="feGaussianBlur3176" stdDeviation="1.71"/>
  </filter>
 </defs>
 <path id="path4230" d="m273.04 165.47c-2.1202 7.3447-36.402 181.33-29.267 189.98 6.1765 7.4828 15.826 4.2405 17.946-3.1042-2.1202 7.3447-6.3607 22.034-8.4809 29.379-17.946 3.1042-33.92-0.81668-37.444-17.946-4.0713-19.793 27.134-182.59 29.267-189.98-4.7411-8.958-29.531-15.826-33.772-1.1362l-7.9128-2.1202c18.514-34.603 53.838-9.3127 69.663-5.0722z" display="none"/>
 <path id="path4232" d="m250.86 183.26c-26.427 32.483-124.22 164.54-147.96 158.17l-15.826-4.2405 12.153-12.569 7.9128 2.1202c15.826 4.2405 123.65-133.04 140.05-160.3 12.573-20.906 3.6724 16.81 3.6724 16.81z" display="none"/>
 <path id="path4234" d="m187.97 253.45 47.477 12.721-4.2405 14.689-55.39-14.842z" display="none"/>
 <ellipse id="path3281-0-0" rx="266.61" ry="248.8" transform="matrix(.96593 .25882 -.27735 .96077 0 0)" cy="174.85" cx="226.69" display="none" fill="url(#radialGradient21305)"/>
 <path id="path4230-0" d="m273.04 165.47c-2.1202 7.3447-36.402 181.33-29.267 189.98 6.1765 7.4828 15.826 4.2405 17.946-3.1042-2.1202 7.3447-6.3607 22.034-8.4809 29.379-17.946 3.1042-33.92-0.81668-37.444-17.946-4.0713-19.793 27.134-182.59 29.267-189.98-4.7411-8.958-29.531-15.826-33.772-1.1362l-7.9128-2.1202c18.514-34.603 53.838-9.3127 69.663-5.0722z" display="none"/>
 <path id="path4232-1" d="m250.86 183.26c-26.427 32.483-124.22 164.54-147.96 158.17l-15.826-4.2405 12.153-12.569 7.9128 2.1202c15.826 4.2405 123.65-133.04 140.05-160.3 12.573-20.906 3.6724 16.81 3.6724 16.81z" display="none"/>
 <path id="path4234-6" d="m187.97 253.45 47.477 12.721-4.2405 14.689-55.39-14.842z" display="none"/>
 <ellipse id="path3281-0-0-1" rx="266.61" transform="matrix(.96593 .25882 -.27735 .96077 0 0)" ry="248.8" cy="174.85" cx="226.69" display="none" fill="url(#radialGradient21305)"/>
 <path id="path4230-8" d="m1680 423c-2.1203 7.3447-36.402 181.33-29.267 189.98 6.1765 7.4828 15.826 4.2405 17.946-3.1042-2.1203 7.3447-6.3607 22.034-8.481 29.379-17.946 3.1042-33.92-0.81668-37.444-17.946-4.0713-19.793 27.134-182.59 29.267-189.98-4.7412-8.958-29.531-15.826-33.772-1.1362l-7.9128-2.1202c18.514-34.603 53.838-9.3127 69.663-5.0722z" display="none"/>
 <path id="path4232-9" d="m1657.8 440.8c-26.427 32.483-124.22 164.54-147.96 158.17l-15.826-4.2405 12.153-12.569 7.9128 2.1202c15.826 4.2405 123.65-133.04 140.05-160.3 12.573-20.906 3.6723 16.81 3.6723 16.81z" display="none"/>
 <path id="path4234-5" d="m1594.9 510.99 47.477 12.721-4.2405 14.689-55.39-14.842z" display="none"/>
 <ellipse id="path3281-0-0-6" rx="266.61" ry="248.8" transform="matrix(.96593 .25882 -.27735 .96077 0 0)" cy="59.452" cx="1650.1" display="none" fill="url(#radialGradient21305-0)"/>
 <g id="layer2" display="none" transform="matrix(6.7274 0 0 6.7274 -2789.7 -809.34)">
  <rect id="rect3745" opacity=".9" rx="6" ry="6" height="85" filter="url(#filter3174)" width="86" y="7" x="5" fill="url(#ButtonShadow)"/>
 </g>
 <path id="rect2986" fill="#2269b1" d="m26 0c-14.397 0-26 11.603-26 26v460c0 14.397 11.603 26 26 26h460c14.397 0 26-11.603 26-26v-460c0-14.397-11.6-26-26-26h-460z"/>
 <path id="path71501" fill-rule="evenodd" fill="#68af4c" d="m26 0c-14.397 0-26 11.603-26 26v450.79l49.031-79.7v-0.02l0.43-0.7 0.475 0.04c82.724-132.16 165.55-263.59 247.4-396.41h-271.34z"/>
 <path id="path71503" fill-rule="evenodd" fill="#dec650" d="m225.65 0l35.86 57.59 0.26 0.43-0.06 0.023 209.4 339.51h40.89v-371.55c0-14.397-11.6-26-26-26h-260.35z"/>
 <path id="path71650" opacity=".26" d="m261.53 57.609l-106.25 169.73-106.25 169.73 114.93 114.93h322.04c14.4 0 26-11.6 26-26v-177.92l-250.47-250.47z"/>
 <path id="path71517" fill="#fff" d="m473.14 397.54-212.06-0.24-212.05-0.23 106.25-169.73 106.25-169.73 105.81 169.97z"/>
</svg>

<?xml version="1.0" encoding="UTF-8" standalone="no"?>
<svg
   xmlns:dc="http://purl.org/dc/elements/1.1/"
   xmlns:cc="http://creativecommons.org/ns#"
   xmlns:rdf="http://www.w3.org/1999/02/22-rdf-syntax-ns#"
   xmlns:svg="http://www.w3.org/2000/svg"
   xmlns="http://www.w3.org/2000/svg"
   xmlns:xlink="http://www.w3.org/1999/xlink"
   xmlns:sodipodi="http://sodipodi.sourceforge.net/DTD/sodipodi-0.dtd"
   xmlns:inkscape="http://www.inkscape.org/namespaces/inkscape"
   id="svg2"
   height="100%"
   viewBox="0 0 512 512"
   width="100%"
   version="1.1"
   inkscape:version="0.91 r13725"
   sodipodi:docname="google-drive.svg">
  <sodipodi:namedview
     pagecolor="#ffffff"
     bordercolor="#666666"
     borderopacity="1"
     objecttolerance="10"
     gridtolerance="10"
     guidetolerance="10"
     inkscape:pageopacity="0"
     inkscape:pageshadow="2"
     inkscape:window-width="640"
     inkscape:window-height="480"
     id="namedview36"
     showgrid="false"
     inkscape:zoom="0.5546875"
     inkscape:cx="36.056338"
     inkscape:cy="240.67606"
     inkscape:current-layer="svg2" />
  <metadata
     id="metadata10">
    <rdf:RDF>
      <cc:Work
         rdf:about="">
        <dc:format>image/svg+xml</dc:format>
        <dc:type
           rdf:resource="http://purl.org/dc/dcmitype/StillImage" />
        <dc:title />
      </cc:Work>
    </rdf:RDF>
  </metadata>
  <defs
     id="defs8">
    <linearGradient
       id="linearGradient4216-1">
      <stop
         id="stop4218-0"
         stop-color="#fff"
         offset="0" />
      <stop
         id="stop4220-2"
         stop-color="#e8e8e8"
         offset=".6875" />
      <stop
         id="stop4222-6"
         stop-color="#686868"
         offset=".875" />
      <stop
         id="stop4224-6"
         offset="1" />
    </linearGradient>
    <radialGradient
       id="radialGradient21305"
       xlink:href="#linearGradient4216-1"
       gradientUnits="userSpaceOnUse"
       cy="64"
       cx="64"
       gradientTransform="matrix(4.1658 0 0 3.8875 -39.924 -73.947)"
       r="64" />
    <radialGradient
       id="radialGradient21305-0"
       gradientUnits="userSpaceOnUse"
       xlink:href="#linearGradient4216-1"
       cx="64"
       cy="64"
       r="64"
       gradientTransform="matrix(4.1658 0 0 3.8875 1383.5 -189.35)" />
    <linearGradient
       id="ButtonShadow"
       x1="45.448"
       gradientUnits="userSpaceOnUse"
       y1="92.54"
       gradientTransform="scale(1.0059 .99417)"
       x2="45.448"
       y2="7.0165">
      <stop
         id="stop3750-1"
         offset="0" />
      <stop
         id="stop3752-6"
         stop-opacity=".58824"
         offset="1" />
    </linearGradient>
    <filter
       id="filter3174"
       color-interpolation-filters="sRGB">
      <feGaussianBlur
         id="feGaussianBlur3176"
         stdDeviation="1.71" />
    </filter>
  </defs>
  <path
     id="path4230"
     d="m273.04 165.47c-2.1202 7.3447-36.402 181.33-29.267 189.98 6.1765 7.4828 15.826 4.2405 17.946-3.1042-2.1202 7.3447-6.3607 22.034-8.4809 29.379-17.946 3.1042-33.92-0.81668-37.444-17.946-4.0713-19.793 27.134-182.59 29.267-189.98-4.7411-8.958-29.531-15.826-33.772-1.1362l-7.9128-2.1202c18.514-34.603 53.838-9.3127 69.663-5.0722z"
     display="none" />
  <path
     id="path4232"
     d="m250.86 183.26c-26.427 32.483-124.22 164.54-147.96 158.17l-15.826-4.2405 12.153-12.569 7.9128 2.1202c15.826 4.2405 123.65-133.04 140.05-160.3 12.573-20.906 3.6724 16.81 3.6724 16.81z"
     display="none" />
  <path
     id="path4234"
     d="m187.97 253.45 47.477 12.721-4.2405 14.689-55.39-14.842z"
     display="none" />
  <ellipse
     id="path3281-0-0"
     rx="266.61"
     ry="248.8"
     transform="matrix(.96593 .25882 -.27735 .96077 0 0)"
     cy="174.85"
     cx="226.69"
     display="none"
     fill="url(#radialGradient21305)" />
  <path
     id="path4230-0"
     d="m273.04 165.47c-2.1202 7.3447-36.402 181.33-29.267 189.98 6.1765 7.4828 15.826 4.2405 17.946-3.1042-2.1202 7.3447-6.3607 22.034-8.4809 29.379-17.946 3.1042-33.92-0.81668-37.444-17.946-4.0713-19.793 27.134-182.59 29.267-189.98-4.7411-8.958-29.531-15.826-33.772-1.1362l-7.9128-2.1202c18.514-34.603 53.838-9.3127 69.663-5.0722z"
     display="none" />
  <path
     id="path4232-1"
     d="m250.86 183.26c-26.427 32.483-124.22 164.54-147.96 158.17l-15.826-4.2405 12.153-12.569 7.9128 2.1202c15.826 4.2405 123.65-133.04 140.05-160.3 12.573-20.906 3.6724 16.81 3.6724 16.81z"
     display="none" />
  <path
     id="path4234-6"
     d="m187.97 253.45 47.477 12.721-4.2405 14.689-55.39-14.842z"
     display="none" />
  <ellipse
     id="path3281-0-0-1"
     rx="266.61"
     transform="matrix(.96593 .25882 -.27735 .96077 0 0)"
     ry="248.8"
     cy="174.85"
     cx="226.69"
     display="none"
     fill="url(#radialGradient21305)" />
  <path
     id="path4230-8"
     d="m1680 423c-2.1203 7.3447-36.402 181.33-29.267 189.98 6.1765 7.4828 15.826 4.2405 17.946-3.1042-2.1203 7.3447-6.3607 22.034-8.481 29.379-17.946 3.1042-33.92-0.81668-37.444-17.946-4.0713-19.793 27.134-182.59 29.267-189.98-4.7412-8.958-29.531-15.826-33.772-1.1362l-7.9128-2.1202c18.514-34.603 53.838-9.3127 69.663-5.0722z"
     display="none" />
  <path
     id="path4232-9"
     d="m1657.8 440.8c-26.427 32.483-124.22 164.54-147.96 158.17l-15.826-4.2405 12.153-12.569 7.9128 2.1202c15.826 4.2405 123.65-133.04 140.05-160.3 12.573-20.906 3.6723 16.81 3.6723 16.81z"
     display="none" />
  <path
     id="path4234-5"
     d="m1594.9 510.99 47.477 12.721-4.2405 14.689-55.39-14.842z"
     display="none" />
  <ellipse
     id="path3281-0-0-6"
     rx="266.61"
     ry="248.8"
     transform="matrix(.96593 .25882 -.27735 .96077 0 0)"
     cy="59.452"
     cx="1650.1"
     display="none"
     fill="url(#radialGradient21305-0)" />
  <g
     id="layer2"
     display="none"
     transform="matrix(6.7274 0 0 6.7274 -2789.7 -809.34)">
    <rect
       id="rect3745"
       opacity=".9"
       rx="6"
       ry="6"
       height="85"
       filter="url(#filter3174)"
       width="86"
       y="7"
       x="5"
       fill="url(#ButtonShadow)" />
  </g>
  <path
     inkscape:connector-curvature="0"
     style="fill:#2269b1"
     id="rect2986"
     d="M 26,0 C 11.603,0 0,11.603 0,26 l 0,460 c 0,14.397 11.603,26 26,26 l 460,0 c 14.397,0 26,-11.603 26,-26 L 512,26 C 512,11.603 500.4,0 486,0 L 26,0 Z" />
  <path
     inkscape:connector-curvature="0"
     style="fill:#68af4c;fill-rule:evenodd"
     id="path71501"
     d="M 26,0 C 11.603,0 0,11.603 0,26 l 0,450.79 49.031,-79.7 0,-0.02 0.43,-0.7 0.475,0.04 C 132.66,264.25 215.486,132.82 297.336,0 L 25.996,0 Z" />
  <path
     inkscape:connector-curvature="0"
     style="fill:#dec650;fill-rule:evenodd"
     id="path71503"
     d="m 225.65,0 35.86,57.59 0.26,0.43 -0.06,0.023 209.4,339.51 40.89,0 0,-371.55 c 0,-14.397 -11.6,-26 -26,-26 l -260.35,0 z" />
  <path
     inkscape:connector-curvature="0"
     style="opacity:0.26000001"
     id="path71650"
     d="m 261.53,57.609 -106.25,169.73 -106.25,169.73 114.93,114.93 322.04,0 c 14.4,0 26,-11.6 26,-26 l 0,-177.92 -250.47,-250.47 z" />
  <path
     inkscape:connector-curvature="0"
     style="fill:#ffffff"
     id="path71517"
     d="M 473.14,397.54 261.08,397.3 49.03,397.07 155.28,227.34 261.53,57.61 367.34,227.58 Z" />
</svg>
